usr/share/icons/biglinux-icons-material/24/actions/format-node-line.svg

<svg xmlns="http://www.w3.org/2000/svg" viewBox="0 0 24 24"><path d="M17 4v2.313L11.312 12H12v.688L17.688 7H20V4h-3zm1 1h1v1h-1V5zm-7 7.313L6.312 17H4v3h3v-2.313L11.688 13H11v-.688zM5 18h1v1H5v-1z" style="fill:currentColor;fill-opacity:1;stroke:none;color:#dedede"/><path d="M10 11v3h3v-3h-3zm1 1h1v1h-1v-1z" style="fill:currentColor;fill-opacity:1;stroke:none;color:#3daee9"/></svg>

<svg xmlns="http://www.w3.org/2000/svg" viewBox="0 0 24 24">
  <defs id="defs3051">
    <style type="text/css" id="current-color-scheme">
      .ColorScheme-Text {
        color:#363636;
      }
      .ColorScheme-Highlight {
        color:#3daee9;
      }
      </style>
  </defs>
 <path 
     style="fill:currentColor;fill-opacity:1;stroke:none" 
     d="M 17 4 L 17 5 L 17 6 L 17 6.3125 L 11.3125 12 L 12 12 L 12 12.6875 L 17.6875 7 L 20 7 L 20 4 L 17 4 z M 18 5 L 19 5 L 19 6 L 18 6 L 18 5 z M 11 12.3125 L 6.3125 17 L 6 17 L 5 17 L 4 17 L 4 20 L 7 20 L 7 17.6875 L 11.6875 13 L 11 13 L 11 12.3125 z M 5 18 L 6 18 L 6 19 L 5 19 L 5 18 z "
     class="ColorScheme-Text"
     />
 <path 
     style="fill:currentColor;fill-opacity:1;stroke:none" 
     d="M 10 11 L 10 14 L 13 14 L 13 11 L 10 11 z M 11 12 L 12 12 L 12 13 L 11 13 L 11 12 z "
     class="ColorScheme-Highlight"
     />
</svg>
